!!!COM: Scriabin, Alexander
!!!OTL@@FR: Guirlandes
!!!OTL@@EN: Guirlandes
!!!OPR@@FR: 2 Danses
!!!OPR@@EN: 2 Dances
!!!OPS: 73
!!!ONM: 1
!!!ODT: 1914
!!!AGN: Dance
**kern	**kern	**dynam
*staff2	*staff1	*staff1/2
*Ipiano	*Ipiano	*
*clefF4	*clefG2	*
*k[]	*k[]	*
*X:	*X:	*
*M3/4	*M3/4	*
=1	=1	=1
*Xtuplet	*Xtuplet	*
*^	*	*
12rBB	2d#X	20r	p
.	.	20gLL	.
12c#XL	.	.	.
.	.	20b	.
.	.	20dd#X	.
12GJ	.	.	.
.	.	[20ff#XJJ	.
12AAL	.	6ff#]	.
12EEJ	.	.	.
12rBB	.	[12aa	.
12rBB	4c# 4cc#X	6aa]	.
12GL	.	.	.
12AAJ	.	12ff#	.
=2	=2	=2	=2
12rBB	2f#X	4r	.
12c#XL	.	.	.
12GJ	.	.	.
.	.	8qcc#X	.
12AAL	.	2bb-X	.
12DD#XJ	.	.	.
12rBB	.	.	.
12rBB	4c# 4cc#X	.	.
12GL	.	.	.
12AAJ	.	.	.
=3	=3	=3	=3
12rBB	2d#X	20r	.
.	.	20aLL	.
12c#XL	.	.	.
.	.	20cc#X	.
.	.	20ffn	.
12GJ	.	.	.
.	.	[20gg#XJJ	.
12AAL	.	6gg#]	.
12EEJ	.	.	.
12rBB	.	[12bbn	.
12rBB	4c# 4cc#X	6bb]	.
12GnL	.	.	.
12AAJ	.	12gg#X	.
!!LO:LB:g=original
=4	=4	=4	=4
12rBB	2f#X	4r	.
12c#XL	.	.	.
12GJ	.	.	.
.	.	8qcc#X	.
12AAL	.	2cccn	.
12DD#XJ	.	.	.
12rBB	.	.	.
12rBB	4c# 4cc#X	.	.
12GL	.	.	.
12AAJ	.	.	.
=5	=5	=5	=5
12rBB	2f#X	20r	.
.	.	20bLL	.
12c#XL	.	.	.
.	.	20dd#X	.
.	.	20gg	.
12GJ	.	.	.
.	.	[20bb-XJJ	.
12AAL	.	6bb-]	.
12EEJ	.	.	.
12rBB	.	12ccc#X	.
12rBB	[4fn	20r	<
.	.	20cc#XLL	.
12c#L	.	.	.
.	.	20ff	.
.	.	20aa	.
12GJ	.	.	.
.	.	[20cccnJJ	.
=6	=6	=6	=6
12AAL	4f]	6ccc]	.
12EEJ	.	.	.
12rBB	.	12ddd#X	.
12rBB	2e	20r	.
.	.	20eeLL	.
12c#XL	.	.	.
.	.	20gg#X	.
.	.	20cccn	.
12GnJ	.	.	.
.	.	[20ddd#JJ	.
12AAL	.	6ddd#]	.
12EEJ	.	.	.
12rBB	.	12fff#X	.
=7	=7	=7	=7
*	*	*8va	*
12rBB	2e-X	20r	mf
.	.	20aaLL	.
12AL	.	.	.
.	.	20ddd-X	.
.	.	20fffn	.
12E-XJ	.	.	.
.	.	[20aaa-XJJ	.
12FFL	.	6aaa-]	.
12CCJ	.	.	.
12rBB	.	[12bbb	.
*	*	*^	*
12rBB	[4An [4an	[4eee-X	6bbb]	>
12e-L	.	.	.	.
12E-J	.	.	12aaa-X	.
!!LO:LB:g=original
=8	=8	=8	=8	=8
8FFL	4A] 4a]	4eee-_	[4cccc	.
8BBBJ	.	.	.	.
4r	4r	6eee-]	6cccc]	.
.	.	[12eee-X	[12bbb	.
4r	4r	4eee-_	6bbb]	.
.	.	.	12aaa-X	.
*v	*v	*	*	*
=9	=9	=9	=9
2.r	4eee-_	[4cccc	pp
.	12eee-]	12ccccL]	.
.	[6eee-X	12bbb	.
.	.	12aaa-XJ	.
.	12eee-]	12ccccL	.
.	[6ccc	12aaa-	.
.	.	12fffJ	.
=10	=10	=10	=10
2.r	12ccc]	12aaanL	.
.	[6aan	12fff	.
.	.	12dddJ	.
.	12aa]	12ggg-XL	.
.	[6gg-X	12ddd	.
.	.	12bbJ	.
.	12gg-]	12eee-XL	.
.	[6gg-	12ddd	.
.	.	12bbJ	.
=11	=11	=11	=11
2.r	12gg-]	12eee-XL	.
.	[6gg-X	12ddd	.
.	.	12bbJ	.
.	12gg-]	12eee-L	.
.	[6gg-	12ddd	.
.	.	12bbJ	.
.	12gg-]	12eee-L	.
.	[6gg-	12ddd	.
.	.	12bbJ	.
=12	=12	=12	=12
2.r	12gg-]	12eee-XL	.
.	[6gg-X	12ddd	.
.	.	12bbJ	.
.	2gg-]	4.eee-	.
.	.	8ddd	.
*	*v	*v	*
*clefG2	*	*
!!LO:LB:g=original
=13	=13	=13
*^	*	*
12gg-L	2.gg-X	8r	p
12a	.	.	.
.	.	[8ddd	.
12e-XJ	.	.	.
8F	.	8dddL]	.
8rA	.	8bb	<
4rA	.	8eee-X	(
.	.	8ggg-XJ	(
*v	*v	*	*
=14	=14	=14
16qBBLL	.	(
16qA	.	(
16qe-XJJ	.	(
*^	*^	*
12ddL	2.dd	4ree	2.aaa	[
12a	.	.	.	.
12e-XJ	.	.	.	>
4rA	.	4aa 4ddd	.	)
4rA	.	4aa 4ddd	.	]
*	*	*v	*v	*
=15	=15	=15	=15
12gg-L	2.gg-X	8r	.
12a	.	.	.
.	.	[8ddd	.
12e-XJ	.	.	.
8F	.	8dddL]	<
8rA	.	8bb	(
4rA	.	8eee-X	(
.	.	8ggg-XJ	(
*v	*v	*	*
=16	=16	=16
16qBBLL	.	(
16qA	.	(
16qe-XJJ	.	(
*^	*^	*
12ddL	2.dd	4ree	2.dddd	[
12a	.	.	.	.
12e-XJ	.	.	.	>
4rA	.	4aa 4ggg-X	.	)
4rA	.	4aa 4ggg-	.	]
*	*	*v	*v	*
=17	=17	=17	=17
12gg-L	2.gg-X	8r	.
12a	.	.	.
.	.	[8ddd	.
12e-XJ	.	.	.
8F	.	8dddL]	.
8rA	.	8bb	.
4rA	.	8eee-X	.
.	.	8ggg-XJ	.
*v	*v	*	*
!!LO:LB:g=original
=18	=18	=18
16qC#XLL	.	.
16qB	.	.
16qe#XJJ	.	.
*^	*^	*
12ddL	2.dd	4r	[2.dddd	.
12a#X	.	.	.	.
12e#XJ	.	.	.	.
4ra	.	4aa#X 4eee#X	.	.
4ra	.	4aa# 4eee#	.	.
*v	*v	*	*	*
*clefF4	*	*	*
=19	=19	=19	=19
*^	*	*	*
16r	4B 4b	[2eee#X	12ddddL]	>
16e#XLL	.	.	.	)
.	.	.	12cccc#X	)
16C#X	.	.	.	)
.	.	.	12aaa#XJ	)
16FF##XJJ	.	.	.	)
4r	4r	.	[4dddd	] pp
4r	4r	12eee#]	12ddddL]	.
.	.	[6ddd	12aaa#	.
.	.	.	12fff##XJ	.
*v	*v	*	*	*
=20	=20	=20	=20
2.r	12ddd]	12bbbL	.
.	[6bb	12fff##X	.
.	.	12eeenJ	.
.	12bb]	12ggg#XL	.
.	[6gg#X	12eee	.
.	.	12ccc#XJ	.
.	12gg#]	12eee#XL	.
.	[6ee#X	12ccc#	.
.	.	12aa#XJ	.
=21	=21	=21	=21
2.r	12ee#]	12dddL	.
.	[6dd	12aa#X	.
.	.	12ff##XJ	.
.	12dd]	12bbL	.
.	[6dd	12aa#	.
.	.	12ff##J	.
.	12dd]	12bbL	.
.	[6dd	12aa#	.
.	.	12ff##J	.
=22	=22	=22	=22
2.r	12dd]	12bbL	.
.	[6dd	12aa#X	.
.	.	12ff##XJ	.
.	2dd]	4.bb	.
.	.	[8aa#	.
*	*v	*v	*
*clefG2	*	*
!!LO:LB:g=original
=23	=23	=23
*^	*	*
12ddL	2.dd	4aa#_	p
12e#X	.	.	.
12BJ	.	.	.
8C#X	.	8aa#L]	.
8r	.	8ff##X	<
4r	.	8bb	(
.	.	8dddJ	(
*v	*v	*	*
=24	=24	=24
16qFF##XLL	.	(
16qE#X	.	(
16qBJJ	.	(
.	8qee#X 8qaa#X	(
*^	*^	*
12a#L	2.a#X	4ree	2.eee#X	[
12e#X	.	.	.	.
12BJ	.	.	.	>
4r	.	4ee#X 4aa#X	.	)
4r	.	4ee# 4aa#	.	]
*	*	*v	*v	*
=25	=25	=25	=25
12ddL	2.dd	8r	.
12e#X	.	.	.
.	.	[8aa#X	.
12BJ	.	.	.
8C#X	.	8aa#L]	.
8r	.	8ff##X	<
4r	.	8bb	(
.	.	8dddJ	(
=26	=26	=26	=26
.	16qAAnLL	.	(
.	16qG	.	(
.	16qc#XJJ	.	(
.	.	8qff#X 8qccc#X	(
*	*	*^	*
12b-L	2.b-X	4ree	[2.bbb-X	[
12f#X	.	.	.	.
12c#XJ	.	.	.	>
4r	.	4ff#X 4ccc#X	.	)
4r	.	4ff# 4ccc#	.	]
*v	*v	*	*	*
*clefF4	*	*	*
=27	=27	=27	=27
*^	*	*	*
16r	4G 4g	[2ccc#X	12bbb-L]	.
16c#XLL	.	.	.	>
.	.	.	12aaa	)
16AA	.	.	.	)
.	.	.	12fff#XJ	)
16DD#XJJ	.	.	.	)
4r	4r	.	[4bbb-X	]
4r	4r	12ccc#]	12bbb-L]	.
.	.	[6bb-X	12fff#	.
.	.	.	12ddd#XJ	.
*v	*v	*	*	*
!!LO:LB:g=original
=28	=28	=28	=28
2.r	12bb-]	12gggL	.
.	[6gg	12ddd#X	.
.	.	12cccnJ	.
.	12gg]	12eeeL	.
.	[6ee	12ccc	.
.	.	12aaJ	.
.	12ee]	12ccc#XL	.
.	[6cc#X	12aa	.
.	.	12ff#XJ	.
=29	=29	=29	=29
2.r	12cc#]	12bb-XL	.
*	*X8va	*X8va	*
.	[6b	12ff#X	.
.	.	12dd#XJ	.
.	12b]	12ggL	.
.	[6b	12ff#	.
.	.	12dd#J	.
.	12b]	12ggL	.
.	[6b	12ff#	.
.	.	12dd#J	.
=30	=30	=30	=30
2.r	12b]	12ggL	.
.	[6b-X	12ff#X	.
.	.	12dd#XJ	.
.	2b-]	4.gg	.
.	.	8ff#	.
*	*v	*v	*
=31	=31	=31
*^	*	*
12rBB	2d#X	20r	p
.	.	20gLL	.
12c#XL	.	.	.
.	.	20bn	.
.	.	20dd#X	.
12GJ	.	.	.
.	.	[20ff#XJJ	<
12AAL	.	6ff#]	(
12EEJ	.	.	(
12rBB	.	[12aa	(
12rBB	4c# 4cc#X	6aa]	[
12GL	.	.	.
12AAJ	.	12ff#	.
!!LO:LB:g=original
=32	=32	=32	=32
12rBB	2f#X	4r	.
12c#XL	.	.	.
12GJ	.	.	.
.	.	8qcc#X	.
12AAL	.	2bb-X	.
12DD#XJ	.	.	.
12rBB	.	.	.
12rBB	4c# 4cc#X	.	.
12GL	.	.	.
12AAJ	.	.	.
=33	=33	=33	=33
12rBB	2d#X	20r	.
.	.	20aLL	.
12c#XL	.	.	.
.	.	20cc#X	.
.	.	20ffn	.
12GJ	.	.	.
.	.	[20gg#XJJ	.
12AAL	.	6gg#]	.
12EEJ	.	.	.
12rBB	.	[12bbn	.
12rBB	4c# 4cc#X	6bb]	.
12GnL	.	.	.
12AAJ	.	12gg#X	.
=34	=34	=34	=34
12rBB	2f#X	4r	.
12c#XL	.	.	.
12GJ	.	.	.
.	.	8qcc#X	.
12AAL	.	2cccn	.
12DD#XJ	.	.	.
12rBB	.	.	.
12rBB	4c# 4cc#X	.	.
12GL	.	.	.
12AAJ	.	.	.
=35	=35	=35	=35
12rBB	2f#X	20r	.
.	.	20bLL	.
12c#XL	.	.	.
.	.	20dd#X	.
.	.	20gg	.
12GJ	.	.	.
.	.	[20bb-XJJ	.
12AAL	.	6bb-]	.
12EEJ	.	.	.
12rBB	.	12ccc#X	.
!!LO:LB:g=original
=-	=-	=-	=-
12rBB	[4fn	20r	.
.	.	20cc#XLL	<
12c#L	.	.	.
.	.	20ff	.
.	.	20aa	.
12GJ	.	.	.
.	.	[20cccnJJ	.
=36	=36	=36	=36
12AAL	4f]	6ccc]	.
12EEJ	.	.	.
12rBB	.	12ddd#X	.
12rBB	2e	20r	.
.	.	20eeLL	.
12c#XL	.	.	.
.	.	20gg#X	.
.	.	20cccn	.
12GnJ	.	.	.
.	.	[20ddd#JJ	.
12AAL	.	6ddd#]	.
12EEJ	.	.	.
12rBB	.	12fff#X	.
=37	=37	=37	=37
*	*	*8va	*
12rBB	2d#X	20r	pp
.	.	20aaLL	.
12rBB	.	.	.
.	.	20ccc#X	.
.	.	20eee#X	.
12A	.	.	.
.	.	[20ggg#XJJ	.
12BBL	.	6ggg#]	.
12FF#XJ	.	.	.
12rBB	.	[12bbb	.
*	*	*^	*
12rBB	[4A [4a	[4ddd#X	6bbb]	.
12d#L	.	.	.	.
12BBJ	.	.	12ggg#	.
=38	=38	=38	=38	=38
8EE#X	4A] 4a]	4ddd#_	[4ccccn	.
8rBB	.	.	.	.
4r	4r	6ddd#]	6cccc]	.
.	.	[12ddd#X	[12bbb	.
4r	4r	4ddd#_	6bbb]	.
.	.	.	12ggg#X	.
*v	*v	*	*	*
!!LO:LB:g=original
=39	=39	=39	=39
2.r	4ddd#_	[4cccc	.
.	12ddd#]	12ccccL]	.
.	[6ccc	12ggg#X	.
.	.	12eee#XJ	.
.	12ccc]	12aaaL	.
.	[6aa	12eee#	.
.	.	12dddnJ	.
=40	=40	=40	=40
2.r	12aa]	12fff#XL	.
.	[6ff#X	12ddd	.
.	.	12bbJ	.
.	12ff#]	12ddd#XL	.
.	[6dd#X	12bb	.
.	.	12gg#XJ	.
.	12dd#]	12cccL	.
*	*X8va	*X8va	*
.	[6cc	12gg#X	.
.	.	12ee#XJ	.
=41	=41	=41	=41
2.r	12cc]	12aaL	.
.	[6cc	12gg#X	.
.	.	12ee#XJ	.
.	12cc]	12aaL	.
.	[6cc	12gg#	.
.	.	12ee#J	.
.	12cc]	12aaL	.
.	[6cc	12gg#	.
.	.	12ee#J	.
=42	=42	=42	=42
2.r	12cc]	12aaL	.
.	[6cc	12gg#X	.
.	.	12ee#XJ	.
.	2cc]	4.aa	.
.	.	8gg#	.
*	*v	*v	*
*clefG2	*	*
!!LO:LB:g=original
=43	=43	=43
*^	*	*
12ccL	2.cc	8r	p
12d#X	.	.	.
.	.	[8gg#X	.
12AJ	.	.	.
8BB	.	8gg#L]	<
8r	.	8ee#X	(
4r	.	8aa	(
.	.	8cccJ	(
=44	=44	=44	=44
.	16qCC#XLL	.	(
.	16qD#X	.	(
.	16qAJJ	.	(
*	*	*^	*
12g#L	2.g#X	4r	2.ddd#X	[ >
12d#X	.	.	.	)
12AJ	.	.	.	)
4r	.	4dd#X 4gg#X	.	)
4r	.	4dd# 4gg#	.	]
*	*	*v	*v	*
=45	=45	=45	=45
12ccL	2.cc	8r	.
12d#X	.	.	.
.	.	[8gg#X	.
12AJ	.	.	.
8BB	.	8gg#L]	<
8r	.	8ee#X	(
4r	.	8aa	(
.	.	8cccJ	(
=46	=46	=46	=46
*	*	*8va	*
.	16qEE#XLL	.	(
.	16qD#X	.	(
.	16qAJJ	.	(
*	*	*^	*
12ccL	2.cc	4ree	2.ggg#X	[ >
12d#X	.	.	.	)
12AJ	.	.	.	)
4r	.	4dd#X 4gg#X	.	)
4r	.	4dd# 4gg#	.	]
*	*	*v	*v	*
=47	=47	=47	=47
12ccL	2.cc	8r	.
12d#X	.	.	.
.	.	[8gg#X	.
12AJ	.	.	.
8BB	.	8gg#L]	<
8r	.	8ee#X	(
4r	.	8aa	(
.	.	8cccJ	(
!!LO:LB:g=original
=48	=48	=48	=48
.	16qGGnLL	.	(
.	16qF	.	(
.	16qBJJ	.	(
*	*	*^	*
12a-L	2.a-X	4ree	[2.aaa-X	[ >
12en	.	.	.	)
12BJ	.	.	.	)
4r	.	4een 4bb	.	)
4r	.	4ee 4bb	.	]
*v	*v	*	*	*
*clefF4	*	*	*
=49	=49	=49	=49
*^	*	*	*
16r	4F 4f	[2bb	12aaa-L]	>
16BLL	.	.	.	)
.	.	.	12ggg	)
16GG	.	.	.	)
.	.	.	12eeeJ	)
16CC#XJJ	.	.	.	)
4r	4r	.	[4aaa-X	]
4r	4r	12bb]	12aaa-L]	.
.	.	[6aa-X	12eee	pp
.	.	.	12ccc#XJ	.
*v	*v	*	*	*
=50	=50	=50	=50
2.r	12aa-]	12fffL	.
.	[6ff	12ccc#X	.
.	.	12bb-XJ	.
.	12ff]	12dddL	.
.	[6dd	12bb-	.
.	.	12ggJ	.
.	12dd]	12bbnL	.
.	[6bn	12gg	.
.	.	12eeJ	.
=51	=51	=51	=51
2.r	12b]	12aa-XL	.
*	*X8va	*X8va	*
.	[6a-X	12ee	.
.	.	12cc#XJ	.
.	12a-]	12ffL	.
.	[6a-	12ee	.
.	.	12cc#J	.
.	12a-]	12ffL	.
.	[6a-	12ee	.
.	.	12cc#J	.
=52	=52	=52	=52
2.r	12a-]	12ffL	.
.	[6a-X	12ee	.
.	.	12cc#XJ	.
.	2a-]	4.ff	.
.	.	8ee	.
*	*v	*v	*
!!LO:LB:g=original
=53	=53	=53
*^	*	*
12a-L	2.a-X	8r	.
12B	.	.	.
.	.	[8ee	.
12FJ	.	.	.
8GG/	.	8eeL]	<
8r	.	8cc#X	(
4r	.	8ff	(
.	.	8aa-XJ	(
=54	=54	=54	=54
.	16qCC#XLL	.	(
.	16qBB	.	(
.	16qFJJ	.	(
*	*	*^	*
12eL	2.e	4r	2.bb	[ >
12B	.	.	.	)
12FJ	.	.	.	)
4r	.	4b 4ee	.	)
4r	.	4b 4ee	.	]
*	*	*v	*v	*
=55	=55	=55	=55
12a-L	2.a-X	8r	.
12B	.	.	.
.	.	[8ee	.
12FJ	.	.	.
8GG/	.	8eeL]	<
8r	.	8cc#X	(
4r	.	8ff	(
.	.	8aa-XJ	[
=56	=56	=56	=56
.	16qEE-XLL	.	.
.	16qD-X	.	.
.	16qGJJ	.	.
*	*	*^	*
12f-L	2.f-X	4r	[2.fff-X	pp
12cn	.	.	.	.
12GJ	.	.	.	.
4r	.	4ccn 4gg	.	.
4r	.	4cc 4gg	.	.
=57	=57	=57	=57	=57
16r	4B-X 4b-X	[2gg	12fff-L]	p
16gLL	.	.	.	.
.	.	.	12ddd#X	.
16c#X	.	.	.	.
.	.	.	12cccnJ	.
16GJJ	.	.	.	.
*v	*v	*	*	*
8AA	.	[4eee	.
8r	.	.	.
4r	12gg]	12eeeL]	.
.	[6ee	12ccc	.
.	.	12aaJ	.
!!LO:LB:g=original
=58	=58	=58	=58
4r	12ee]	12ccc#XL	.
.	[6cc#X	12aa	.
.	.	12ff#XJ	.
4r	12cc#]	12bb-XL	.
.	[6b-X	12ff#	.
.	.	12dd#XJ	.
4D#X 4c#X 4g	4b-]	4gg	.
=59	=59	=59	=59
16r	[2b-X	12r	.
16gLL	.	.	.
.	.	12ff#XL	.
16c#X	.	.	.
.	.	12dd#XJ	.
16GJJ	.	.	.
8AA	.	[4gg	.
8r	.	.	.
4r	12b-]	12ggL]	.
.	[6g	12dd#	.
.	.	12ccnJ	.
=60	=60	=60	=60
4r	12g]	12eeL	.
.	[6e	12cc	.
.	.	12aJ	.
4r	12e]	12cc#XL	.
.	[6c#X	12a	.
.	.	12f#XJ	.
4DD#X 4C#X [4G	4c#_	[4b-X	.
=61	=61	=61	=61
*^	*	*	*
4AA	4G]	12c#]	12b-L]	.
.	.	[6c#X	12a	.
.	.	.	12f#XJ	.
4DD#X 4C#X	2G	4c#_	[4b-X	.
4AA	.	12c#]	12b-L]	.
.	.	[6c#	12a	.
.	.	.	12f#J	.
!!LO:LB:g=original
=62	=62	=62	=62	=62
4DD#X 4C#X	2G	4c#_	[4b-X	.
4AA	.	12c#]	12b-L]	.
.	.	[6c#X	12a	.
.	.	.	12f#XJ	.
4DD# 4C#	4G	4c#]	6b-	.
.	.	.	12f#	.
*v	*v	*	*	*
=63	=63	=63	=63
[2.DD#X [2.C#X [2.G	[2.c#X [2.f#X	20rcc	pp
.	.	20gLL	.
.	.	20bn	.
.	.	20dd#X	.
.	.	[20ff#XJJ	.
.	.	6ff#]	.
.	.	[12aa	.
.	.	4aa_	.
=64	=64	=64	=64
2.DD#] 2.C#] 2.G]	2.c#] 2.f#]	2aa]	.
.	.	4ff#X	.
*	*v	*v	*
=65	=65	=65
[[4qAAA	.	.
[[4qAA	.	.
[[4qG\	.	.
N[[4qc#>/	.	.
N[[4qf#>/	.	.
N[[4qb->	.	.
N[[4qcc#>	.	.
N[4qff#>	.	.
2.AAA] 2.AA] 2.G]	2.c#N] 2.f#N] 2.b-N] 2.cc#N] 2.ff#N] 2.bb-	.
==	==	==
*-	*-	*-
!!!system-decoration: {(*)}
!!!filter: flipper -a
!!!RDF**kern: < = below
!!!RDF**kern: > = above
!!!RDF**kern: N = linked
!!!RDF**dynam: > = dim.
!!!ENC: Bryan Jacob Bell
!!!END: November 2021 to April 2022
!!!PED: Günter Philipp
!!!PTL: Ausgewählte Klavierwerke (Edition Peters)
